X:24
T:The Old Time Wedding Reel
R:Reel
Z:Gwen 2021-02-04 d'après le "tune walkthrough" de Jenn Butterworth
M:2/2
K:Am
%B
|: AGEG AGEG | cdcA G2GB | A/A/Acd edcG | ABcd e2eg |
   abag egdB | cAGA c2cd | edcA GEcE |1 D/D/DEG A2AB :|2 D/D/DEG A3g |
|: ageg agea | gede g3 e | agea gaed | cAcd e2eg |
   abag egdB | cAGA c2cd | edcA GEcE |1 D/D/DEG A3g :|2 D/D/DEG A3B ||

